assets/icons/solid/bangladeshi-taka-sign.svg

<svg xmlns="http://www.w3.org/2000/svg" viewBox="0 0 384 512"><!--! Font Awesome Free 6.6.0 by @fontawesome - https://fontawesome.com License - https://fontawesome.com/license/free (Icons: CC BY 4.0, Fonts: SIL OFL 1.1, Code: MIT License) Copyright 2024 Fonticons, Inc. --><path d="M36 32.3C18.4 30.1 2.4 42.5 .2 60S10.5 93.6 28 95.8l7.9 1c16 2 28 15.6 28 31.8L64 160l-32 0c-17.7 0-32 14.3-32 32s14.3 32 32 32l32 0 0 160c0 53 43 96 96 96l32 0c106 0 192-86 192-192l0-32c0-53-43-96-96-96l-16 0c-17.7 0-32 14.3-32 32s14.3 32 32 32l16 0c17.7 0 32 14.3 32 32l0 32c0 70.7-57.3 128-128 128l-32 0c-17.7 0-32-14.3-32-32l0-160 32 0c17.7 0 32-14.3 32-32s-14.3-32-32-32l-32 0 0-31.5c0-48.4-36.1-89.3-84.1-95.3l-7.9-1z"/></svg>

<svg xmlns="http://www.w3.org/2000/svg" viewBox="0 0 384 512"><!--! Font Awesome Pro 6.2.0 by @fontawesome - https://fontawesome.com License - https://fontawesome.com/license (Commercial License) Copyright 2022 Fonticons, Inc. --><path d="M36 32.2C18.4 30.1 2.4 42.5 .2 60S10.5 93.6 28 95.8l7.9 1c16 2 28 15.6 28 31.8V160H32c-17.7 0-32 14.3-32 32s14.3 32 32 32H64V384c0 53 43 96 96 96h32c106 0 192-86 192-192V256c0-53-43-96-96-96H272c-17.7 0-32 14.3-32 32s14.3 32 32 32h16c17.7 0 32 14.3 32 32v32c0 70.7-57.3 128-128 128H160c-17.7 0-32-14.3-32-32V224h32c17.7 0 32-14.3 32-32s-14.3-32-32-32H128V128.5c0-48.4-36.1-89.3-84.1-95.3l-7.9-1z"/></svg>
